X:130
T: Der Spielmannssohn
N: Q1062D
O: Mitteleuropa, Deutschland (BRD) , Westfalen
N: Melodievergleich zu Q0062, anderes Lied "Der treue Knabe" .
R: Tage - Lied
M: 3/4
L: 1/16
K: F
c2 | C3FF4E2F2 | G2GAF4z3
F | F3cc3BA2F2 | G2FAG4z2
F2 | G2A2B2c4C2C2 | F2E2F2A2G2z2
C2 | B2A2G2A2F4 | C2C2F4z2

